X:157
T:Ce moys de may
C:Guillaume Dufay
C:Transcript par N. Nakamura, 2005,2007
M:6/8
L:1/8
K:C
V:1 name=Cantus
F4c2 | BA2F2G | ECD/E/ FE2 | F3z2c |
c4A2 | G4A2 | Bd2cB2 | c2A F2A | _BA2GF2 |
G3z2G | AB2c2B | A2G FE2 | Dz A AGA/B/ |
V:2 name=Contra
c3f3 | e3 d2B | A2G AB2 | c2AF3 |
z2F F2F | c4f2 | ed2G2G | A3 B2c | de2 dc2 |
d3z2d | GG2 A2A | FF2 A2c | f2e dc2 |
V:3 name=Tenor
F6 | A3d3 | c2B AG2 | F3 z2f |
f4f2 | e4d2 | g2f ed2 | c2d2A2 | Gc2 BA2 |
G3z2G | d2d cc2 | f2e dc2 | d4e2 |
V:1
cB2 AG2 | A6 | z2A c2c | F2A c2B |
V:2
gf2 ed2 | ez A c2c | F4f2 | cd2 e2e |
V:3
cd2 cB2 | A3 z2A | c2c F3- | Ff2 c2c |
V:1
AG2 Fz C | EFD C2B, | C3 z2G | A4F2 |
V:2
fe2 d2c- | cF2 cG2 | A2G F3 | z2F F2G |
V:3
d2e f2g- | gf2 ed2 | c3 z2c | A4d2 |
V:1
E4D2 | C2F FED | F2c c2B | Az G/A/ FE2 | F6 |]
V:2
A4B2 | A2G A2B | cf2 ec2 | zF2 A2B | c6 |]
V:3
c4G2 | A2B AG2 | F2A2c2 | f2e dc2 | F6 |]





